icons/ui/mm.svg

<svg viewBox="0 0 24 24" fill="none" xmlns="http://www.w3.org/2000/svg"><path d="M10 16v-4a2 2 0 00-2-2H6m-4 6v-6h4m0 0v6m16 0v-4a2 2 0 00-2-2h-2m-4 6v-6h4m0 0v6" stroke="#fff" stroke-width="2" stroke-linecap="round" stroke-linejoin="round"/></svg>

<svg viewBox="0 0 24 24" fill="none" xmlns="http://www.w3.org/2000/svg">
    <g id="SVGRepo_bgCarrier" stroke-width="0"></g>
    <g id="SVGRepo_tracerCarrier" stroke-linecap="round" stroke-linejoin="round"></g>
    <g id="SVGRepo_iconCarrier">
    <path
        d="M10 16V12C10 10.8954 9.10457 10 8 10H6M2 16V10H6M6 10V16M22 16V12C22 10.8954 21.1046 10 20 10H18M14 16V10H18M18 10V16"
        stroke="#ffffff"
        stroke-width="2"
        stroke-linecap="round"
        stroke-linejoin="round"
    ></path>
    </g>
</svg>
